packages/flutter/assets/icons/thunderbolt.svg

<?xml version="1.0" encoding="UTF-8"?>
<svg width="24px" height="24px" viewBox="0 0 24 24" version="1.1" xmlns="http://www.w3.org/2000/svg" xmlns:xlink="http://www.w3.org/1999/xlink">
    <title>thunderbolt</title>
    <g id="thunderbolt" stroke="none" stroke-width="1" fill="none" fill-rule="evenodd">
        <path d="M16.2255597,2 C16.7778444,2 17.2255597,2.44771525 17.2255597,3 C17.2255597,3.18925931 17.171852,3.37463304 17.0706778,3.53457953 L13.8896546,8.56346749 L18.431357,8.56346749 C18.9836417,8.56346749 19.431357,9.01118274 19.431357,9.56346749 C19.431357,9.84357623 19.3138759,10.1108442 19.1075001,10.3002378 L7.66113175,20.8047101 C7.25422475,21.1781336 6.62164186,21.1509899 6.24821833,20.7440829 C5.94144707,20.4098047 5.89816521,19.9108876 6.1427884,19.5287749 L10.1103454,13.3312693 L6.65212443,13.3312693 C6.09983968,13.3312693 5.65212443,12.8835541 5.65212443,12.3312693 C5.65212443,12.1697499 5.69124905,12.010634 5.76615165,11.8675321 L10.6503393,2.53626274 C10.8228934,2.2065972 11.1642176,2 11.5363121,2 L16.2255597,2 Z M6.65212443,12.3312693 L11.9378976,12.3312693 L6.98498863,20.0679398 L18.431357,9.56346749 L12.0738381,9.56346749 L16.2255597,3 L11.5363121,3 L6.65212443,12.3312693 Z" id="Triangle-2" fill="#303846"></path>
    </g>
</svg>

<svg xmlns="http://www.w3.org/2000/svg" width="24" height="24" viewBox="0 0 24 24"><path fill-rule="evenodd" d="M16.226 2a1 1 0 0 1 .845 1.535L13.89 8.563h4.541a1 1 0 0 1 .677 1.737L7.66 20.805a1 1 0 0 1-1.518-1.276l3.967-6.198H6.652a1 1 0 0 1-.886-1.463l4.884-9.332A1 1 0 0 1 11.536 2h4.69zM6.652 12.331h5.286l-4.953 7.737L18.431 9.563h-6.357L16.226 3h-4.69l-4.884 9.331z"/></svg>
